X: 36903
T: Shoo The Donkey
R: mazurka
M: 3/4
K: Gmajor
|:d>^c|d2 B2 d>^c|d2 B2 d>^c|d2 e2 d2|c4 c>B|
c2 A2 c>B|c2 A2 c>B|c2 e2 d2|1 B4:|2 G3 A||
|:B>A|G2 B2 d2|g3 g a>g|f2 e2 d2|A3 B A>G|
F2 G2 A2|f3 g f>e|1 d2 c2 A2|B3 c:|2 d2 e2 f2|g4||

